!!!OTL: Yengjie guangming
!!!ARE: Asia, China, Shanxi Qinyuan
!! I, 309
!!!SCT: C2123
!!!YEM: Copyright 1995, estate of Helmut Schaffrath.
**kern
*ICvox
*Ivox
*M4/4
*k[]
*C:
{8.cc
16dd
8.gg
16ee
8dd
16ee
16gg
8a
8g
=1
8cc
16b
16a
16g
16a
16g
16e
2g}
=2
{8.cc
16dd
8.gg
16ee
8dd
16ee
16gg
8a
8g
=3
8cc
16b
16a
16g
16a
16g
16e
2g}
=4
{8.g
16a
4cc
8dd
4gg
16ee
16dd
=5
8cc
8b
8dd
8a
8g
16r
16a
8f
8e}
=6
{8.d
16e
8g
8a
8cc
8cc
8e
8d
=7
8g
16g
16e
8d
16e
16d
2c}
==
!!!AGN: Wuge, Yangge Songxing diao
!! Han
!!!ONB: ESAC (Essen Associative Code) Database: SENGANSU
!!!AMT: simple quadruple
!!!AIN: vox
!!!EED: Helmut Schaffrath
!!!EEV: 1.0
*-
